X: 10331
M: 3/8
L: 1/16
K: D
V: 1 staves=3
d2d2 A>f | d2d2 A>f | e2a2a2 | f2d2 A>f |\
d2d2 A>f | d2d2 A>f | e2a2a2 | d4 :|
|: e>f |\
g>fefge | f>edefd | e>dcdec | d>efgaf |\
g>fefge | f>edefd | e>dcdec | d4 :|
V: 2
z2 |\
|: c>d |\
e>dcdec | d>AFGAF | G>FEFGE | F>Adefd |\
e>dcdec | d>AFGAF | G>FEFGE | F4 :|
V: 3 clef=bass middle=d
z2 |\
d2d2z2 | d2d2z2 | A2A2A2 | d4z2 |\
d2d2z2 | d2d2z2 | A2A2A2 | d4 :|
|: z2 |\


